apps/scalable/deepin-appstore.svg

<svg xmlns="http://www.w3.org/2000/svg" style="isolation:isolate" width="256" height="256"><defs><filter id="a" width="270.648" height="254.338" x="-7.32" y="2.95" filterUnits="userSpaceOnUse"><feGaussianBlur xmlns="http://www.w3.org/2000/svg" in="SourceGraphic" stdDeviation="4.294"/><feOffset xmlns="http://www.w3.org/2000/svg" dy="4" result="pf_100_offsetBlur"/><feFlood xmlns="http://www.w3.org/2000/svg" flood-opacity=".4"/><feComposite xmlns="http://www.w3.org/2000/svg" in2="pf_100_offsetBlur" operator="in" result="pf_100_dropShadow"/><feBlend xmlns="http://www.w3.org/2000/svg" in="SourceGraphic" in2="pf_100_dropShadow"/></filter></defs><g filter="url(#a)"><linearGradient id="b" x1=".733" x2=".267" y1="1.071" y2=".005" gradientTransform="matrix(244.648 0 0 228.338 5.676 11.947)" gradientUnits="userSpaceOnUse"><stop offset="0%" stop-color="#f37e40"/><stop offset="100%" stop-color="#fda463"/></linearGradient><path fill="url(#b)" d="M165.685 11.947c74.055 0 84.639 10.557 84.639 84.544v59.251c0 73.986-10.584 84.543-84.639 84.543h-75.37c-74.055 0-84.639-10.557-84.639-84.543V96.491c0-73.987 10.584-84.544 84.639-84.544h75.37z"/></g><g opacity=".4"><linearGradient id="c" x1=".517" x2=".517" y2="1"><stop offset="0%" stop-color="#fff"/><stop offset="12.5%" stop-opacity=".098" stop-color="#fff"/><stop offset="92.5%" stop-opacity=".098"/><stop offset="100%" stop-opacity=".498"/></linearGradient><path fill="none" stroke="url(#c)" stroke-linecap="round" stroke-linejoin="round" stroke-width="4.077" d="M165.685 11.947c74.055 0 84.639 10.557 84.639 84.544v59.251c0 73.986-10.584 84.543-84.639 84.543h-75.37c-74.055 0-84.639-10.557-84.639-84.543V96.491c0-73.987 10.584-84.544 84.639-84.544h75.37z" vector-effect="non-scaling-stroke"/></g><g filter="url(#FosCtFxCZAEzU7GCY8LR3dIqRnFqzoNc)"><path fill="#EFEFEF" fill-rule="evenodd" d="M56.878 58.811c0-2.172 1.773-3.933 3.953-3.933h134.338c2.183 0 3.953 1.774 3.953 3.933V94.39H56.878V58.811z"/><path fill="#FFF" fill-rule="evenodd" d="M56.878 58.811c0-2.172 1.773-3.933 3.953-3.933h134.338c2.183 0 3.953 1.774 3.953 3.933V94.39H56.878V58.811z"/><path fill="#EFEFEF" fill-rule="evenodd" d="M56.878 60.8a3.952 3.952 0 0 1 3.953-3.947h134.338a3.946 3.946 0 0 1 3.953 3.947v33.59H56.878V60.8z"/><linearGradient id="d" x2="0" y1=".5" y2="1.5" gradientTransform="matrix(142.244 0 0 102.732 56.878 94.39)" gradientUnits="userSpaceOnUse"><stop offset="100%" stop-color="#fec589"/><stop offset="100%" stop-color="#d5400d"/></linearGradient><path fill="url(#d)" fill-rule="evenodd" d="M56.878 193.112V94.39h142.244v98.781c0 3.951-3.952 3.951-3.952 3.951H60.861c-3.92 0-3.983-4.01-3.983-4.01z"/><path fill="#FB7C38" fill-rule="evenodd" d="M56.878 191.183V96.366h142.244v94.829c0 3.951-3.945 3.951-3.945 3.951H60.95c-4.072 0-4.072-3.963-4.072-3.963z"/><path fill="#FEC589" d="M155.038 161.336a2.474 2.474 0 0 1-1.49-.782c-.891-.955-2.355-3.762-3.557-6.816-.674-1.715-1.966-5.491-1.966-5.749 0-.081.852-.644 1.893-1.25l1.893-1.102.298.278c1.175 1.104 4.561 6.161 6.535 9.762.789 1.44.868 1.645.865 2.239-.004.791-.253 1.343-.956 2.126-.844.938-2.297 1.473-3.515 1.294zm-56.26-.94c.035-.097.611-2.695 1.28-5.774.669-3.08 1.23-5.618 1.248-5.641.06-.077 6.109 4.166 6.108 4.285-.001.065-1.749 1.567-3.886 3.339-4.81 3.99-4.829 4.006-4.75 3.791zm6.405-10.864c-1.685-1.165-3.051-2.168-3.034-2.228.039-.143 14.518-24.653 14.638-24.777.065-.069 6.392 3.909 6.689 4.205.064.064-14.991 24.864-15.11 24.892-.065.015-1.497-.926-3.183-2.092zm39.74-6.476c-1.156-1.948-2.084-3.554-2.063-3.569.206-.145 4.584-2.662 4.631-2.662.073 0 3.748 7.32 3.694 7.358-.474.331-3.982 2.423-4.056 2.419-.058-.003-1.051-1.599-2.206-3.546zm-47.515-.368c-.04-.34-.058-3.083-.038-6.095l.035-5.476 6.07.038c3.338.018 6.083.049 6.101.066.017.015-1.59 2.743-3.57 6.059l-3.602 6.028h-4.923l-.073-.62zm18.206.444c0-.03 1.649-2.762 3.664-6.069l3.664-6.013h13.004l3.476 5.789a927.456 927.456 0 0 1 3.628 6.07l.151.28h-13.794c-7.586 0-13.793-.026-13.793-.057zm35.481-2.565c-.7-1.443-2.018-4.148-2.928-6.011l-1.656-3.389h4.499c2.475 0 5.574-.034 6.886-.077l2.387-.078v12.177h-7.915l-1.273-2.622zm-10.045-3.89c-2.665-4.198-5.379-9.131-8.642-15.704-2.588-5.215-5.079-10.606-6.107-13.218-1.489-3.784-1.845-6.137-.961-6.358 1.414-.355 4.182 2.856 8.121 9.423 3.086 5.144 8.024 14.133 11.792 21.467a157.652 157.652 0 0 0 1.549 2.964l.277.49-2.349 1.367c-1.291.752-2.391 1.367-2.443 1.367-.053 0-.609-.809-1.237-1.798zm-20.401-13.01l-3.274-2.158.309-.49c.17-.269 1.028-1.636 1.906-3.038.878-1.401 1.61-2.565 1.627-2.585.017-.019 1.491.925 3.277 2.1l3.247 2.138-.483.787c-.266.433-1.066 1.742-1.777 2.909a143.176 143.176 0 0 1-1.426 2.308c-.114.162-.581-.108-3.406-1.971zm4.179-7.008c-1.697-1.108-3.085-2.067-3.085-2.131 0-.468 1.402-1.768 2.094-1.942 1.137-.285 3.003.444 4.042 1.581.803.879.979 1.309.904 2.209-.057.679-.61 2.298-.786 2.298-.046 0-1.473-.906-3.169-2.015z"/><path d="M92.439 76.61a5.927 5.927 0 1 0-11.854 0 5.927 5.927 0 0 0 11.854 0zm82.976 0a5.927 5.927 0 1 0-11.854 0 5.927 5.927 0 0 0 11.854 0z"/><path fill="#975E3F" d="M92.439 76.61a5.927 5.927 0 1 0-11.854 0 5.927 5.927 0 0 0 11.854 0zm82.976 0a5.927 5.927 0 1 0-11.854 0 5.927 5.927 0 0 0 11.854 0z"/><path fill="#FC9F5F" fill-rule="evenodd" d="M90.463 76.61a3.951 3.951 0 1 0-7.903-.001 3.951 3.951 0 0 0 7.903.001zm82.976 0a3.951 3.951 0 1 0-7.903-.001 3.951 3.951 0 0 0 7.903.001z"/><path fill="none" fill-rule="evenodd" stroke="#000" stroke-linecap="round" stroke-linejoin="round" stroke-width="3" d="M169.488 80.561c0 26.186-12.842 51.366-41.488 51.366s-41.488-25.18-41.488-51.366" vector-effect="non-scaling-stroke" opacity=".1"/><path fill="none" fill-rule="evenodd" stroke="#934A23" stroke-linecap="round" stroke-linejoin="round" stroke-width="2.6" d="M169.488 76.61c0 26.186-12.842 51.365-41.488 51.365S86.512 102.796 86.512 76.61" vector-effect="non-scaling-stroke"/><g fill="#D64310" fill-rule="evenodd"><path d="M116.173 178.723h-8.203l.002-1.372c0-.467.439-.925.916-.927h6.844c.412 0 .891.467.889.92-.002.358-.007.578-.007.919 0 0 0 .46-.441.46zm2.262 6.43c.47 0 .472-.425.472-.467l-.003-1.365c0-.46-.462-.467-.462-.467l-9.569-.007c-.917 0-.903-.897-.903-.897-.012-.058.001-.935 0-.935h9.11c2.529 0 2.273-1.839 2.273-1.839v-1.822s.246-3.235-3.18-3.235h-7.675c-3.487 0-3.251 3.191-3.251 3.191l.001 4.621c0 3.222 3.192 3.207 3.192 3.207l9.995.015zM101.589 182.405s.007.449-.455.449c-.497 0-2.92.006-4.409.001-1.49-.005-3.316-.335-3.317-3.184-.001-2.848 2.029-3.243 3.295-3.243s4.884.005 4.884.005l.002 5.972zm2.279-12.425h-1.816s-.455 0-.455.475l-.003 3.663h-5.896c-4.285-.001-5.039 3.746-5.036 5.524.005 1.778.771 5.503 5.103 5.499 4.333-.004 4.455.005 6.289.005 2.271 0 2.274-2.285 2.274-2.285V170.44c0-.46-.46-.46-.46-.46zM152.134 172.739h-1.821a.458.458 0 0 1-.455-.46v-1.839c0-.253.204-.459.455-.459h1.821c.251 0 .455.206.455.459v1.839c0 .254-.204.46-.455.46zM152.134 185.153h-1.821a.458.458 0 0 1-.455-.46v-10.115c0-.254.204-.459.455-.459h1.821c.251 0 .455.205.455.459v10.115c0 .254-.204.46-.455.46zM160.785 174.122c-3.345-.005-7.285-.001-7.285-.001v10.565c0 .208.132.516.545.462l1.59-.005c.628.09.61-.465.61-.465l-.014-8.254 4.55-.003c.076 0 1.839.035 1.839 2.295l-.013 5.978a.457.457 0 0 0 .456.46l1.82-.001a.458.458 0 0 0 .455-.46v-6.186c0-2.548-1.209-4.381-4.553-4.385zM138.02 176.859s-.007-.448.456-.448c.496 0 2.92-.006 4.409-.001 1.489.004 3.316.334 3.317 3.184.001 2.848-2.029 3.243-3.296 3.243-1.266 0-4.883-.005-4.883-.005l-.003-5.973zm-2.275 12.425h1.813s.456 0 .456-.474l.001-3.663h5.897c4.284.001 5.039-3.746 5.035-5.524-.004-1.778-.77-5.503-5.103-5.499-4.333.004-4.451-.006-6.285-.006-2.272 0-2.271 2.286-2.271 2.286v12.421c0 .459.457.459.457.459zM131.198 178.723h-8.203l.002-1.372c0-.467.439-.925.916-.927h6.843c.413 0 .892.467.89.92-.002.358-.007.578-.007.919 0 0 0 .46-.441.46zm2.262 6.43c.469 0 .472-.425.472-.467l-.003-1.365c0-.46-.462-.467-.462-.467l-9.569-.007c-.917 0-.903-.897-.903-.897-.012-.058 0-.935 0-.935h9.11c2.529 0 2.272-1.839 2.272-1.839v-1.822s.247-3.235-3.179-3.235h-7.675c-3.487 0-3.251 3.191-3.251 3.191l.001 4.621c0 3.222 3.191 3.207 3.191 3.207l9.996.015z"/></g></g><defs><filter id="FosCtFxCZAEzU7GCY8LR3dIqRnFqzoNc" width="198.244" height="205.406" x="28.88" y="28.88" filterUnits="userSpaceOnUse"><feGaussianBlur xmlns="http://www.w3.org/2000/svg" in="SourceGraphic" stdDeviation="4.294"/><feOffset xmlns="http://www.w3.org/2000/svg" dy="2" result="pf_100_offsetBlur"/><feFlood xmlns="http://www.w3.org/2000/svg" flood-opacity=".4"/><feComposite xmlns="http://www.w3.org/2000/svg" in2="pf_100_offsetBlur" operator="in" result="pf_100_dropShadow"/><feBlend xmlns="http://www.w3.org/2000/svg" in="SourceGraphic" in2="pf_100_dropShadow"/></filter></defs></svg>

<svg xmlns="http://www.w3.org/2000/svg" style="isolation:isolate" width="256" height="256" viewBox="0 0 256 256">
 <defs>
  <filter id="3EZx8Q6z3stE1KYEHxoPz9UTbEokh0vW" width="270.648" height="254.338" x="-7.32" y="2.95" filterUnits="userSpaceOnUse">
   <feGaussianBlur xmlns="http://www.w3.org/2000/svg" in="SourceGraphic" stdDeviation="4.294"/>
   <feOffset xmlns="http://www.w3.org/2000/svg" dx="0" dy="4" result="pf_100_offsetBlur"/>
   <feFlood xmlns="http://www.w3.org/2000/svg" flood-opacity=".4"/>
   <feComposite xmlns="http://www.w3.org/2000/svg" in2="pf_100_offsetBlur" operator="in" result="pf_100_dropShadow"/>
   <feBlend xmlns="http://www.w3.org/2000/svg" in="SourceGraphic" in2="pf_100_dropShadow" mode="normal"/>
  </filter>
 </defs>
 <g filter="url(#3EZx8Q6z3stE1KYEHxoPz9UTbEokh0vW)">
  <linearGradient id="_lgradient_47" x1=".733" x2=".267" y1="1.071" y2=".005" gradientTransform="matrix(244.648,0,0,228.338,5.676,11.947)" gradientUnits="userSpaceOnUse">
   <stop offset="0%" style="stop-color:rgb(243,126,64)"/>
   <stop offset="100%" style="stop-color:rgb(253,164,99)"/>
  </linearGradient>
  <path fill="url(#_lgradient_47)" d="M 165.685 11.947 C 239.74 11.947 250.324 22.504 250.324 96.491 L 250.324 155.742 C 250.324 229.728 239.74 240.285 165.685 240.285 L 90.315 240.285 C 16.26 240.285 5.676 229.728 5.676 155.742 L 5.676 96.491 C 5.676 22.504 16.26 11.947 90.315 11.947 L 165.685 11.947 Z"/>
 </g>
 <g opacity=".4">
  <linearGradient id="_lgradient_48" x1=".517" x2=".517" y1="0" y2="1">
   <stop offset="0%" style="stop-color:rgb(255,255,255)"/>
   <stop offset="12.5%" stop-opacity=".098" style="stop-color:rgb(255,255,255)"/>
   <stop offset="92.5%" stop-opacity=".098" style="stop-color:rgb(0,0,0)"/>
   <stop offset="100%" stop-opacity=".498" style="stop-color:rgb(0,0,0)"/>
  </linearGradient>
  <path fill="none" stroke="url(#_lgradient_48)" stroke-linecap="round" stroke-linejoin="round" stroke-width="4.077" d="M 165.685 11.947 C 239.74 11.947 250.324 22.504 250.324 96.491 L 250.324 155.742 C 250.324 229.728 239.74 240.285 165.685 240.285 L 90.315 240.285 C 16.26 240.285 5.676 229.728 5.676 155.742 L 5.676 96.491 C 5.676 22.504 16.26 11.947 90.315 11.947 L 165.685 11.947 Z" vector-effect="non-scaling-stroke"/>
 </g>
 <g filter="url(#FosCtFxCZAEzU7GCY8LR3dIqRnFqzoNc)">
  <path fill="#EFEFEF" fill-rule="evenodd" d="M 56.878 58.811 C 56.878 56.639 58.651 54.878 60.831 54.878 L 195.169 54.878 C 197.352 54.878 199.122 56.652 199.122 58.811 L 199.122 94.39 L 56.878 94.39 L 56.878 58.811 Z"/>
  <path fill="#FFFFFF" fill-rule="evenodd" d="M 56.878 58.811 C 56.878 56.639 58.651 54.878 60.831 54.878 L 195.169 54.878 C 197.352 54.878 199.122 56.652 199.122 58.811 L 199.122 94.39 L 56.878 94.39 L 56.878 58.811 Z"/>
  <path fill="#EFEFEF" fill-rule="evenodd" d="M 56.878 60.8 C 56.878 58.62 58.651 56.853 60.831 56.853 L 195.169 56.853 C 197.352 56.853 199.122 58.614 199.122 60.8 L 199.122 94.39 L 56.878 94.39 L 56.878 60.8 Z"/>
  <linearGradient id="_lgradient_49" x1="0" x2="0" y1=".5" y2="1.5" gradientTransform="matrix(142.244,0,0,102.732,56.878,94.39)" gradientUnits="userSpaceOnUse">
   <stop offset="100%" style="stop-color:rgb(254,197,137)"/>
   <stop offset="100%" style="stop-color:rgb(213,64,13)"/>
  </linearGradient>
  <path fill="url(#_lgradient_49)" fill-rule="evenodd" d="M 56.878 193.112 L 56.878 94.39 L 199.122 94.39 L 199.122 193.171 C 199.122 197.122 195.17 197.122 195.17 197.122 C 195.17 197.122 64.78 197.122 60.861 197.122 C 56.941 197.122 56.878 193.112 56.878 193.112 Z"/>
  <path fill="#FB7C38" fill-rule="evenodd" d="M 56.878 191.183 L 56.878 96.366 L 199.122 96.366 L 199.122 191.195 C 199.122 195.146 195.177 195.146 195.177 195.146 C 195.177 195.146 105.692 195.146 60.95 195.146 C 56.878 195.146 56.878 191.183 56.878 191.183 Z"/>
  <path fill="#FEC589" d="M 155.038 161.336 C 154.45 161.249 153.951 160.988 153.548 160.554 C 152.657 159.599 151.193 156.792 149.991 153.738 C 149.317 152.023 148.025 148.247 148.025 147.989 C 148.025 147.908 148.877 147.345 149.918 146.739 L 151.811 145.637 L 152.109 145.915 C 153.284 147.019 156.67 152.076 158.644 155.677 C 159.433 157.117 159.512 157.322 159.509 157.916 C 159.505 158.707 159.256 159.259 158.553 160.042 C 157.709 160.98 156.256 161.515 155.038 161.336 L 155.038 161.336 Z M 98.778 160.396 C 98.813 160.299 99.389 157.701 100.058 154.622 C 100.727 151.542 101.288 149.004 101.306 148.981 C 101.366 148.904 107.415 153.147 107.414 153.266 C 107.413 153.331 105.665 154.833 103.528 156.605 C 98.718 160.595 98.699 160.611 98.778 160.396 Z M 105.183 149.532 C 103.498 148.367 102.132 147.364 102.149 147.304 C 102.188 147.161 116.667 122.651 116.787 122.527 C 116.852 122.458 123.179 126.436 123.476 126.732 C 123.54 126.796 108.485 151.596 108.366 151.624 C 108.301 151.639 106.869 150.698 105.183 149.532 Z M 144.923 143.056 C 143.767 141.108 142.839 139.502 142.86 139.487 C 143.066 139.342 147.444 136.825 147.491 136.825 C 147.564 136.825 151.239 144.145 151.185 144.183 C 150.711 144.514 147.203 146.606 147.129 146.602 C 147.071 146.599 146.078 145.003 144.923 143.056 L 144.923 143.056 Z M 97.408 142.688 C 97.368 142.348 97.35 139.605 97.37 136.593 L 97.405 131.117 L 103.475 131.155 C 106.813 131.173 109.558 131.204 109.576 131.221 C 109.593 131.236 107.986 133.964 106.006 137.28 L 102.404 143.308 L 99.943 143.308 L 97.481 143.308 L 97.408 142.688 Z M 115.614 143.132 C 115.614 143.102 117.263 140.37 119.278 137.063 L 122.942 131.05 L 129.444 131.05 L 135.946 131.05 L 139.422 136.839 C 141.334 140.023 142.967 142.755 143.05 142.909 L 143.201 143.189 L 129.407 143.189 C 121.821 143.189 115.614 143.163 115.614 143.132 L 115.614 143.132 Z M 151.095 140.567 C 150.395 139.124 149.077 136.419 148.167 134.556 L 146.511 131.167 L 151.01 131.167 C 153.485 131.167 156.584 131.133 157.896 131.09 L 160.283 131.012 L 160.283 137.101 L 160.283 143.189 L 156.326 143.189 L 152.368 143.189 L 151.095 140.567 L 151.095 140.567 Z M 141.05 136.677 C 138.385 132.479 135.671 127.546 132.408 120.973 C 129.82 115.758 127.329 110.367 126.301 107.755 C 124.812 103.971 124.456 101.618 125.34 101.397 C 126.754 101.042 129.522 104.253 133.461 110.82 C 136.547 115.964 141.485 124.953 145.253 132.287 C 145.952 133.648 146.649 134.982 146.802 135.251 L 147.079 135.741 L 144.73 137.108 C 143.439 137.86 142.339 138.475 142.287 138.475 C 142.234 138.475 141.678 137.666 141.05 136.677 L 141.05 136.677 Z M 120.649 123.667 L 117.375 121.509 L 117.684 121.019 C 117.854 120.75 118.712 119.383 119.59 117.981 C 120.468 116.58 121.2 115.416 121.217 115.396 C 121.234 115.377 122.708 116.321 124.494 117.496 L 127.741 119.634 L 127.258 120.421 C 126.992 120.854 126.192 122.163 125.481 123.33 C 124.769 124.496 124.128 125.535 124.055 125.638 C 123.941 125.8 123.474 125.53 120.649 123.667 L 120.649 123.667 Z M 124.828 116.659 C 123.131 115.551 121.743 114.592 121.743 114.528 C 121.743 114.06 123.145 112.76 123.837 112.586 C 124.974 112.301 126.84 113.03 127.879 114.167 C 128.682 115.046 128.858 115.476 128.783 116.376 C 128.726 117.055 128.173 118.674 127.997 118.674 C 127.951 118.674 126.524 117.768 124.828 116.659 L 124.828 116.659 Z"/>
  <path d="M 92.439 76.61 C 92.439 73.336 89.785 70.683 86.512 70.683 C 83.239 70.683 80.585 73.336 80.585 76.61 C 80.585 79.883 83.239 82.536 86.512 82.536 C 89.785 82.536 92.439 79.883 92.439 76.61 Z M 175.415 76.61 C 175.415 73.336 172.761 70.683 169.488 70.683 C 166.215 70.683 163.561 73.336 163.561 76.61 C 163.561 79.883 166.215 82.536 169.488 82.536 C 172.761 82.536 175.415 79.883 175.415 76.61 Z"/>
  <path fill="#975E3F" d="M 92.439 76.61 C 92.439 73.336 89.785 70.683 86.512 70.683 C 83.239 70.683 80.585 73.336 80.585 76.61 C 80.585 79.883 83.239 82.536 86.512 82.536 C 89.785 82.536 92.439 79.883 92.439 76.61 Z M 175.415 76.61 C 175.415 73.336 172.761 70.683 169.488 70.683 C 166.215 70.683 163.561 73.336 163.561 76.61 C 163.561 79.883 166.215 82.536 169.488 82.536 C 172.761 82.536 175.415 79.883 175.415 76.61 Z"/>
  <path fill="#FC9F5F" fill-rule="evenodd" d="M 90.463 76.61 C 90.463 74.427 88.694 72.658 86.512 72.658 C 84.33 72.658 82.561 74.427 82.561 76.61 C 82.561 78.792 84.33 80.561 86.512 80.561 C 88.694 80.561 90.463 78.792 90.463 76.61 Z M 173.439 76.61 C 173.439 74.427 171.67 72.658 169.488 72.658 C 167.306 72.658 165.537 74.427 165.537 76.61 C 165.537 78.792 167.306 80.561 169.488 80.561 C 171.67 80.561 173.439 78.792 173.439 76.61 Z"/>
  <g opacity=".1">
   <path fill="none" fill-rule="evenodd" stroke="#000000" stroke-linecap="round" stroke-linejoin="round" stroke-width="3" d="M 169.488 80.561 C 169.488 106.747 156.646 131.927 128 131.927 C 99.354 131.927 86.512 106.747 86.512 80.561" vector-effect="non-scaling-stroke"/>
  </g>
  <path fill="none" fill-rule="evenodd" stroke="#934A23" stroke-linecap="round" stroke-linejoin="round" stroke-width="2.6" d="M 169.488 76.61 C 169.488 102.796 156.646 127.975 128 127.975 C 99.354 127.975 86.512 102.796 86.512 76.61" vector-effect="non-scaling-stroke"/>
  <g>
   <path fill="#D64310" fill-rule="evenodd" d="M 116.173 178.723 C 115.882 178.723 107.97 178.723 107.97 178.723 C 107.97 178.723 107.972 177.533 107.972 177.351 C 107.972 176.884 108.411 176.426 108.888 176.424 C 109.33 176.423 115.274 176.424 115.732 176.424 C 116.144 176.424 116.623 176.891 116.621 177.344 C 116.619 177.702 116.614 177.922 116.614 178.263 C 116.614 178.263 116.614 178.723 116.173 178.723 Z M 118.435 185.153 C 118.905 185.153 118.907 184.728 118.907 184.686 C 118.906 184.526 118.904 183.482 118.904 183.321 C 118.904 182.861 118.442 182.854 118.442 182.854 C 118.442 182.854 109.452 182.847 108.873 182.847 C 107.956 182.847 107.97 181.95 107.97 181.95 C 107.958 181.892 107.971 181.015 107.97 181.015 L 117.08 181.015 C 119.609 181.015 119.353 179.176 119.353 179.176 L 119.353 177.354 C 119.353 177.354 119.599 174.119 116.173 174.119 L 108.498 174.119 C 105.011 174.119 105.247 177.31 105.247 177.31 C 105.247 179.039 105.248 179.657 105.248 181.931 C 105.248 185.153 108.44 185.138 108.44 185.138 L 118.435 185.153 Z"/>
   <path fill="#D64310" fill-rule="evenodd" d="M 101.589 182.405 C 101.589 182.405 101.596 182.854 101.134 182.854 C 100.637 182.854 98.214 182.86 96.725 182.855 C 95.235 182.85 93.409 182.52 93.408 179.671 C 93.407 176.823 95.437 176.428 96.703 176.428 C 97.969 176.428 101.587 176.433 101.587 176.433 C 101.587 176.433 101.589 181.997 101.589 182.405 Z M 103.868 169.98 C 103.672 169.981 102.247 169.981 102.052 169.98 C 102.052 169.98 101.597 169.98 101.597 170.455 C 101.597 170.493 101.594 174.118 101.594 174.118 C 99.678 174.118 97.693 174.119 95.698 174.118 C 91.413 174.117 90.659 177.864 90.662 179.642 C 90.667 181.42 91.433 185.145 95.765 185.141 C 100.098 185.137 100.22 185.146 102.054 185.146 C 104.325 185.146 104.328 182.861 104.328 182.861 L 104.328 170.44 C 104.328 169.98 103.868 169.98 103.868 169.98 Z"/>
   <path fill="#D64310" fill-rule="evenodd" d="M 152.134 172.739 L 150.313 172.739 C 150.062 172.739 149.858 172.533 149.858 172.279 L 149.858 170.44 C 149.858 170.187 150.062 169.981 150.313 169.981 L 152.134 169.981 C 152.385 169.981 152.589 170.187 152.589 170.44 L 152.589 172.279 C 152.589 172.533 152.385 172.739 152.134 172.739 Z"/>
   <path fill="#D64310" fill-rule="evenodd" d="M 152.134 185.153 L 150.313 185.153 C 150.062 185.153 149.858 184.947 149.858 184.693 L 149.858 174.578 C 149.858 174.324 150.062 174.119 150.313 174.119 L 152.134 174.119 C 152.385 174.119 152.589 174.324 152.589 174.578 L 152.589 184.693 C 152.589 184.947 152.385 185.153 152.134 185.153 Z"/>
   <path fill="#D64310" fill-rule="evenodd" d="M 160.785 174.122 C 157.44 174.117 153.5 174.121 153.5 174.121 L 153.5 184.686 C 153.5 184.894 153.632 185.202 154.045 185.148 C 154.49 185.147 155.19 185.144 155.635 185.143 C 156.263 185.233 156.245 184.678 156.245 184.678 L 156.231 176.424 C 156.231 176.424 159.562 176.421 160.781 176.421 C 160.857 176.421 162.62 176.456 162.62 178.716 L 162.607 184.694 C 162.606 184.948 162.81 185.154 163.063 185.154 L 164.883 185.153 C 165.134 185.153 165.338 184.947 165.338 184.693 L 165.338 178.507 C 165.338 175.959 164.129 174.126 160.785 174.122 Z"/>
   <path fill="#D64310" fill-rule="evenodd" d="M 138.02 176.859 C 138.02 176.859 138.013 176.411 138.476 176.411 C 138.972 176.411 141.396 176.405 142.885 176.41 C 144.374 176.414 146.201 176.744 146.202 179.594 C 146.203 182.442 144.173 182.837 142.906 182.837 C 141.64 182.837 138.023 182.832 138.023 182.832 C 138.023 182.832 138.02 177.268 138.02 176.859 Z M 135.745 189.284 C 135.94 189.283 137.363 189.283 137.558 189.284 C 137.558 189.284 138.014 189.284 138.014 188.81 C 138.014 188.772 138.015 185.147 138.015 185.147 C 139.932 185.147 141.917 185.146 143.912 185.147 C 148.196 185.148 148.951 181.401 148.947 179.623 C 148.943 177.845 148.177 174.12 143.844 174.124 C 139.511 174.128 139.393 174.118 137.559 174.118 C 135.287 174.118 135.288 176.404 135.288 176.404 L 135.288 188.825 C 135.288 189.284 135.745 189.284 135.745 189.284 Z"/>
   <path fill="#D64310" fill-rule="evenodd" d="M 131.198 178.723 C 130.907 178.723 122.995 178.723 122.995 178.723 C 122.995 178.723 122.997 177.533 122.997 177.351 C 122.997 176.884 123.436 176.426 123.913 176.424 C 124.355 176.423 130.298 176.424 130.756 176.424 C 131.169 176.424 131.648 176.891 131.646 177.344 C 131.644 177.702 131.639 177.922 131.639 178.263 C 131.639 178.263 131.639 178.723 131.198 178.723 Z M 133.46 185.153 C 133.929 185.153 133.932 184.728 133.932 184.686 C 133.931 184.526 133.929 183.482 133.929 183.321 C 133.929 182.861 133.467 182.854 133.467 182.854 C 133.467 182.854 124.477 182.847 123.898 182.847 C 122.981 182.847 122.995 181.95 122.995 181.95 C 122.983 181.892 122.995 181.015 122.995 181.015 L 132.105 181.015 C 134.634 181.015 134.377 179.176 134.377 179.176 L 134.377 177.354 C 134.377 177.354 134.624 174.119 131.198 174.119 L 123.523 174.119 C 120.036 174.119 120.272 177.31 120.272 177.31 C 120.272 179.039 120.273 179.657 120.273 181.931 C 120.273 185.153 123.464 185.138 123.464 185.138 L 133.46 185.153 Z"/>
  </g>
 </g>
 <defs>
  <filter id="FosCtFxCZAEzU7GCY8LR3dIqRnFqzoNc" width="198.244" height="205.406" x="28.88" y="28.88" filterUnits="userSpaceOnUse">
   <feGaussianBlur xmlns="http://www.w3.org/2000/svg" in="SourceGraphic" stdDeviation="4.294"/>
   <feOffset xmlns="http://www.w3.org/2000/svg" dx="0" dy="2" result="pf_100_offsetBlur"/>
   <feFlood xmlns="http://www.w3.org/2000/svg" flood-opacity=".4"/>
   <feComposite xmlns="http://www.w3.org/2000/svg" in2="pf_100_offsetBlur" operator="in" result="pf_100_dropShadow"/>
   <feBlend xmlns="http://www.w3.org/2000/svg" in="SourceGraphic" in2="pf_100_dropShadow" mode="normal"/>
  </filter>
 </defs>
</svg>
